packages/icons/src/components/Icon/assets/small-outline/chat.svg

<svg width="16" height="16" viewBox="0 0 16 16" fill="none" xmlns="http://www.w3.org/2000/svg">
<path fill-rule="evenodd" clip-rule="evenodd" d="M8.00019 2.66007C6.45411 2.66007 4.93481 2.77319 3.45003 2.9915C2.71419 3.0997 2.16667 3.75317 2.16667 4.53853V8.49956C2.16667 9.28492 2.71419 9.93839 3.45002 10.0466L3.36517 10.6237L3.45002 10.0466C4.15159 10.1497 4.86086 10.2294 5.577 10.2848C5.88083 10.3082 6.11538 10.5616 6.11538 10.8664V12.5146L7.75067 10.8793C8.07334 10.5567 8.50543 10.3772 8.95247 10.3637C10.1708 10.327 11.3712 10.22 12.55 10.0467C13.2858 9.93848 13.8333 9.285 13.8333 8.49963V4.53848C13.8333 3.75311 13.2858 3.09963 12.55 2.99144C11.0653 2.77317 9.54613 2.66007 8.00019 2.66007ZM3.28031 1.83725C4.82111 1.6107 6.39713 1.49341 8.00019 1.49341C9.6031 1.49341 11.179 1.61067 12.7197 1.83718C14.0688 2.03554 15 3.21642 15 4.53848V8.49963C15 9.82169 14.0688 11.0026 12.7196 11.2009C11.4965 11.3808 10.2511 11.4917 8.98763 11.5298C8.82857 11.5346 8.68173 11.5982 8.57562 11.7043L5.94453 14.3354C5.7777 14.5022 5.5268 14.5521 5.30882 14.4618C5.09084 14.3715 4.94872 14.1588 4.94872 13.9229V11.4018C4.38831 11.3491 3.83204 11.282 3.28031 11.2008C1.93116 11.0025 1 9.8216 1 8.49956V4.53853C1 3.21649 1.93116 2.03562 3.28031 1.83725Z" fill="black"/>
</svg>

<svg xmlns="http://www.w3.org/2000/svg" width="16" height="16" fill="none" viewBox="0 0 16 16">
    <path d="M8 2.66q-2.32.002-4.55.331c-.736.109-1.283.762-1.283 1.548v3.96c0 .786.547 1.44 1.283 1.548l-.085.577.085-.577q1.052.154 2.127.238a.583.583 0 0 1 .538.581v1.649l1.636-1.636a1.77 1.77 0 0 1 1.201-.515 31 31 0 0 0 3.598-.317c.736-.109 1.283-.762 1.283-1.547V4.538c0-.785-.547-1.438-1.283-1.547A31 31 0 0 0 8 2.661m-4.72-.823A32.4 32.4 0 0 1 8 1.493c1.603 0 3.179.118 4.72.344 1.349.199 2.28 1.38 2.28 2.701V8.5c0 1.322-.931 2.503-2.28 2.7q-1.837.271-3.732.33a.6.6 0 0 0-.412.174l-2.631 2.631a.583.583 0 0 1-.996-.412v-2.521q-.84-.08-1.669-.201C1.931 11.002 1 9.82 1 8.5V4.539c0-1.323.931-2.503 2.28-2.702" clip-rule="evenodd"/>
</svg>
